X:386
T:Kendal Ghyll
C:Joseph Barnes MS, Carlisle, 1762
Q:3/8=116
M:6/8
N:For the dance in "Dances from the Yorkshire Dales" play 3 x AABBB
K:G
P:A
|: "D"d2e f2g | "D"fed "Am"cBA | "D"d2e f2g | "D"agf "Am"gfe |\
"D"d3 def | "A"A3 AGF | "Em"G2B "A7"A2G | "D"AFD D3 :|
P:B
|: "D"F3 A3 | "Am"cBA cBA | "G"G3 B3 | "G"dcB dcB |\
"D"F3 A3 | "Am"cBA cBA | "Em"G3 "A7"A2B | "D"AFD D3 :|
N:Replace by blank line and X field
T:Kendal Ghyll  (EFDSS version)
S:Colin Hume's website,  colinhume.com  - chords can also be printed below the stave.
Q:3/8=116
M:6/8
L:1/8
K:G
P:A
"G"B2d "C"c2e | "D7"def "G"g3 | "G"B2d "C"c2e | "G"dcB "D7"A3 |\
"G"B2d "C"c2e | "D7"def "Em"g3 | "G"b2g "C"c'2b | "D7"agf "G"g3 |
P:B
"G"BdB "Em"G2B | "Am"cec "D7"A2c | "G"BdB G2G | "D7"F2E D3 |\
"G"BdB "Em"G2B | "Am"cec "D7"A2c | "G"BAG "C"c2B | "D7"AGF "G"G3 |
P:C
|: "G"GGG GAB | "G"d2B G3 | "Am"A2A A3 | "D7"F2E D3 |\
"G"GGG GAB | "Bm"d2B "Em"G2G | "Am"A2A "D7"FEF | "G"G3 G2D :|
P:D
"G"B3 Bcd | "C"e3 e3 | "D7"A3 ABc | "Bm"d3 d3 |\
"G"d2c B2d | "C"f2e c2A | "G"d2B "D7"cBA | "G"G3 g3 |]

